X:1
T:Title
%%score { ( 1 3 5 ) | ( 2 4 ) }
L:1/8
M:4/4
K:Ab
V:1 treble nm="Grand Piano"
V:3 treble 
V:5 treble 
V:2 bass 
V:4 bass 
V:1
 z4 z2[Q:1/4=100] E2 | [Ec]3 [Fd] c>B F>G | [DB]2 [CA]2 [CE]2 A>B | z2 B4 z2 | z2 c4 z2 | %5
 [Ec]3 [Fd] c>B F>G | [DB]2 [CA]2 [CE]2 A>B | z2 B4 z2 | E6 E2 | d2 d>c B[K:bass]=E,F,G, | %10
 c2 c>B A[K:bass]F,E,C, | [FA]2 [FA]>[FB] [FA][FG][FA][FB] | [=Ec]6 [Fc]2 | %13
[M:7/8] [Fd]2 [Fd]>[Fc][FB] [F=A][FB] |[M:1/8] [F_c] |[M:4/4] [=Ec]2 [Ec]>[GB] AG A2 | %16
 [FB]>[Fc] [B,FB]>[B,FA] [B,=DG]2 [A,DF]2 | E8 | [Ec]2 c2- [Ec]2 [DB]>[Ec] | %19
 [DB]2 z2 z c [GB]>[FA] | [FA]>G z2 z B [FA]>G |[M:3/4] z2 [CE]4[K:bass] |[M:1/4] E2 | %23
[M:4/4][K:treble] [Ec]2 c2- [Ec]2 [DB]>[Ec] | [DB]2 z2 z c [GB]>[FA] | [EG]2 [GB]2 [FA]2 [=DF]2 | %26
 E2 E2 E2 E2 | [Ec]2 c2- [Ec]2 [DB]>[Ec] | [DB]2 z2 z c [GB]>[FA] | [FA]>G z2 z B [FA]>G | %30
[M:3/4] z2 [CE]4 |[M:1/4] E2 |[M:4/4] [CEe]2 [DGe]2 [EAe]2 [Ge]2 | e3 c A2 E2 | %34
 [Gd]2 [_Gd]2 d2 d2 |[M:3/4] d3 B G2 |[M:1/4] E2 |[M:4/4] [EA]3- [EA]/[EG]/ [EA]>B c>d | %38
 e2 c2 [EA]2 [Fd]2 | [Ec]2 z2 [DB]4 |[M:3/4] [CA]6 |] %41
V:2
 z4 z2 E,2 | [A,,A,]3 [A,,A,] [E,A,E]>[E,G,D] [E,B,D]>[E,B,D] | [A,,A,]2 [A,,A,]2 [A,,A,]2 z2 | %3
 z2 [E,G,D]>[E,G,] [E,G,]2 z2 | z2 [A,E]>A, A,2 E,2 | %5
 [A,,A,]3 [A,,A,] [E,A,E]>[E,G,D] [E,B,D]>[E,B,D] | [A,,A,]2 [A,,A,]2 [A,,A,]2 z2 | %7
 z2 [E,G,E]>[E,G,] [B,,F,][B,,G,] [B,,A,]>[B,,B,] | [E,G,]6 [E,G,]2 | %9
 [E,B,E]2 [E,B,E]>[E,A,E] .[E,G,E]2 z2 | [A,E]2 [A,E]>[A,D] .[A,C]2 z2 | %11
 [D,A,]2 [D,A,]>[D,A,] [D,A,][D,A,][D,A,][D,F,] | [C,G,]6 [F,=A,]2 | %13
[M:7/8] [B,,B,]2 [B,,B,]>[C,=A,][D,B,] [D,B,][D,B,] |[M:1/8] [D,F,] | %15
[M:4/4] [C,G,]2 [C,G,]>[C,C] [F,CF][F,CF] [F,CF]2 | [=D,B,]>[D,B,] D,>D, B,,2 B,,2 | z2 A,2 G,4 | %18
 [B,,A,]2 [A,,E,]2 [A,,A,]2 [A,,E,]2 | [A,,A,]2 [A,,E,]2 z A [A,,E,]2 | z z/ E/ E,2 z G z z/ E/ | %21
[M:3/4] [A,,A,]2 [A,,E,]2 A,,2 |[M:1/4] [C,E,] z |[M:4/4] [A,,A,]2 [A,,E,]2 [A,,A,]2 [A,,E,]2 | %24
 [A,,A,]2 [A,,E,]2 z A [A,,E,]2 | [B,,B,]2 [B,,B,]2 [B,,B,]2 [B,,A,]2 | %26
 [E,G,]2 [D,B,]2 [C,A,]2 [B,,G,]2 | [A,,A,]2 [A,,E,]2 [A,,A,]2 [A,,E,]2 | %28
 [A,,A,]2 [A,,E,]2 z A [A,,E,]2 | z z/ E/ E,2 z G z z/ E/ |[M:3/4] [A,,A,]2 [A,,E,]2 A,,2 | %31
[M:1/4] E,2 |[M:4/4] A,,2 B,,2 C,2 [E,D]2 | [A,CA]3 [A,E][K:bass] [A,CE]2 [A,C]2 | %34
 [E,B,]2 [=E,B,]2 [F,B,F]2 [_G,B,=E]2 |[M:3/4] [G,B,E]3 [G,B,E] [E,B,E]2 |[M:1/4] [D,B,]2 | %37
[M:4/4] [C,A,]3- [C,A,]/[D,B,]/ [C,A,]>[E,G,E] [A,E]>[A,B,E] | [A,CE]2 [A,E]2 [C,A,]2 [D,A,]2 | %39
 [E,A,]2 z2 [E,G,]4 |[M:3/4] [A,,A,]6 |] %41
V:3
 x8 | x8 | x8 | G2 z z/ D/ D2 B>c | A2 z z/ E/ E2 E2 | x8 | x8 | G2 z z/ E/ =DE [DF]>[DG] | x8 | %9
 x5[K:bass] x3 | x5[K:bass] x3 | x8 | x8 |[M:7/8] x7 |[M:1/8] x |[M:4/4] x8 | x8 | G,2 C2 D4 | %18
 z2 E2 z4 | z2 [CA]4 z2 | z2 [EG]4 z2 |[M:3/4] [DF]>[CE] z2[K:bass] A,2 |[M:1/4] z E, | %23
[M:4/4][K:treble] z2 E2 z4 | z2 [CA]4 z2 | x8 | x8 | z2 E2 z4 | z2 [CA]4 z2 | z2 [EG]4 z2 | %30
[M:3/4] [DF]>[CE] z2 A,2 |[M:1/4] x2 |[M:4/4] x8 | x8 | x8 |[M:3/4] x6 |[M:1/4] x2 |[M:4/4] x8 | %38
 x8 | x8 |[M:3/4] x6 |] %41
V:4
 x8 | x8 | x8 | x8 | x8 | x8 | x8 | x8 | x8 | x8 | x8 | x8 | x8 |[M:7/8] x7 |[M:1/8] x | %15
[M:4/4] x8 | x8 | E,8 | x8 | z4 A,,2 z2 | [B,,B,]2 z2 E,2 E,2 |[M:3/4] x6 |[M:1/4] x2 |[M:4/4] x8 | %24
 z4 A,,2 z2 | x8 | x8 | x8 | z4 A,,2 z2 | [B,,B,]2 z2 E,2 E,2 |[M:3/4] x6 |[M:1/4] x2 |[M:4/4] x8 | %33
 x4[K:bass] x4 | x8 |[M:3/4] x6 |[M:1/4] x2 |[M:4/4] x8 | x8 | x8 |[M:3/4] x6 |] %41
V:5
 x8 | x8 | x8 | x8 | x8 | x8 | x8 | x8 | x8 | x5[K:bass] x3 | x5[K:bass] x3 | x8 | x8 |[M:7/8] x7 | %14
[M:1/8] x |[M:4/4] x8 | x8 | x8 | x8 | z4 A,2 z2 | z4 B,2 z2 |[M:3/4] x4[K:bass] x2 |[M:1/4] x2 | %23
[M:4/4][K:treble] x8 | z4 A,2 z2 | x8 | x8 | x8 | z4 A,2 z2 | z4 B,2 z2 |[M:3/4] x6 |[M:1/4] x2 | %32
[M:4/4] x8 | x8 | x8 |[M:3/4] x6 |[M:1/4] x2 |[M:4/4] x8 | x8 | x8 |[M:3/4] x6 |] %41

